dist/icons/svgs/question-outline.svg

<svg xmlns="http://www.w3.org/2000/svg" width="24" height="24" fill="currentcolor" class="icon-question-outline" viewBox="0 0 24 24">
  <path d="M8.75 8.25C8.75 8.79688 8.32031 9.1875 7.8125 9.1875C7.26562 9.1875 6.875 8.79688 6.875 8.25C6.875 5.51562 9.10156 3.25 11.875 3.25H13.0859C15.8594 3.25 18.0859 5.51562 18.0859 8.25V8.44531C18.0859 10.0078 17.3047 11.4922 16.0156 12.3516L13.9844 13.7188C13.6328 13.9531 13.4375 14.3438 13.4375 14.7344V14.8125C13.4375 15.3594 13.0078 15.75 12.5 15.75C11.9531 15.75 11.5625 15.3594 11.5625 14.8125V14.7344C11.5625 13.7188 12.0703 12.7422 12.9297 12.1562L14.9609 10.7891C15.7812 10.2812 16.25 9.38281 16.25 8.44531V8.25C16.25 6.53125 14.8438 5.125 13.125 5.125H11.875C10.1172 5.125 8.75 6.53125 8.75 8.25ZM12.5 20.75C11.7969 20.75 11.25 20.2031 11.25 19.5C11.25 18.8359 11.7969 18.25 12.5 18.25C13.1641 18.25 13.75 18.8359 13.75 19.5C13.75 20.2031 13.1641 20.75 12.5 20.75Z"/>
</svg>

<svg xmlns="http://www.w3.org/2000/svg" width="24" height="24" fill="currentColor" class="icon-question-outline" viewBox="0 0 24 24">
  <path d="M8.75 8.25c0 .547-.43.938-.937.938-.547 0-.938-.391-.938-.938 0-2.734 2.227-5 5-5h1.21c2.774 0 5 2.266 5 5v.195c0 1.563-.78 3.047-2.07 3.907l-2.03 1.367a1.23 1.23 0 0 0-.547 1.015v.079c0 .546-.43.937-.938.937-.547 0-.937-.39-.937-.937v-.079c0-1.015.507-1.992 1.367-2.578l2.03-1.367a2.75 2.75 0 0 0 1.29-2.344V8.25a3.134 3.134 0 0 0-3.125-3.125h-1.25A3.11 3.11 0 0 0 8.75 8.25m3.75 12.5c-.703 0-1.25-.547-1.25-1.25 0-.664.547-1.25 1.25-1.25.664 0 1.25.586 1.25 1.25 0 .703-.586 1.25-1.25 1.25"/>
</svg>
